resources/icons/16px/diagram-tree.svg

<?xml version="1.0" encoding="UTF-8"?>
<svg width="16px" height="16px" viewBox="0 0 16 16" version="1.1" xmlns="http://www.w3.org/2000/svg" xmlns:xlink="http://www.w3.org/1999/xlink">
    <!-- Generator: Sketch 50 (54983) - http://www.bohemiancoding.com/sketch -->
    <title>16</title>
    <desc>Created with Sketch.</desc>
    <defs></defs>
    <g id="16" stroke="none" stroke-width="1" fill="none" fill-rule="evenodd">
        <path d="M15,8 L15,11 L13,11 L13,9 L9,9 L9,11 L7,11 L7,9 L3,9 L3,11 L1,11 L1,8 C1,7.44771525 1.44771525,7 2,7 L7,7 L7,5 L9,5 L9,7 L14,7 C14.5522847,7 15,7.44771525 15,8 Z M1,12 L3,12 C3.55228475,12 4,12.4477153 4,13 L4,15 C4,15.5522847 3.55228475,16 3,16 L1,16 C0.44771525,16 6.76353751e-17,15.5522847 0,15 L0,13 C-6.76353751e-17,12.4477153 0.44771525,12 1,12 Z M13,12 L15,12 C15.5522847,12 16,12.4477153 16,13 L16,15 C16,15.5522847 15.5522847,16 15,16 L13,16 C12.4477153,16 12,15.5522847 12,15 L12,13 C12,12.4477153 12.4477153,12 13,12 Z M7,12 L9,12 C9.55228475,12 10,12.4477153 10,13 L10,15 C10,15.5522847 9.55228475,16 9,16 L7,16 C6.44771525,16 6,15.5522847 6,15 L6,13 C6,12.4477153 6.44771525,12 7,12 Z M7,0 L9,0 C9.55228475,-1.01453063e-16 10,0.44771525 10,1 L10,3 C10,3.55228475 9.55228475,4 9,4 L7,4 C6.44771525,4 6,3.55228475 6,3 L6,1 C6,0.44771525 6.44771525,1.01453063e-16 7,0 Z" id="Organization" fill="#000000"></path>
    </g>
</svg>

<svg xmlns="http://www.w3.org/2000/svg" viewBox="0 0 16 16">
  <path d="M15 8v3h-2V9H9v2H7V9H3v2H1V8a1 1 0 0 1 1-1h5V5h2v2h5a1 1 0 0 1 1 1M1 12h2a1 1 0 0 1 1 1v2a1 1 0 0 1-1 1H1a1 1 0 0 1-1-1v-2a1 1 0 0 1 1-1m12 0h2a1 1 0 0 1 1 1v2a1 1 0 0 1-1 1h-2a1 1 0 0 1-1-1v-2a1 1 0 0 1 1-1m-6 0h2a1 1 0 0 1 1 1v2a1 1 0 0 1-1 1H7a1 1 0 0 1-1-1v-2a1 1 0 0 1 1-1M7 0h2a1 1 0 0 1 1 1v2a1 1 0 0 1-1 1H7a1 1 0 0 1-1-1V1a1 1 0 0 1 1-1"/>
</svg>
